assets/img/dsharp-logo-new.svg

<svg width="304" height="213" viewBox="0 0 304 213" fill="none" xmlns="http://www.w3.org/2000/svg">
<g clip-path="url(#clip0_38_2)">
<path d="M296.2 101.19H185.7L238.63 9.52001V9.46001C238.955 8.88943 239.165 8.2604 239.247 7.60885C239.328 6.95729 239.281 6.29598 239.108 5.66267C238.934 5.02935 238.637 4.43645 238.234 3.91782C237.832 3.39919 237.331 2.96498 236.76 2.64001C236.189 2.31533 235.559 2.10641 234.907 2.02518C234.255 1.94395 233.594 1.99201 232.96 2.1666C232.327 2.3412 231.734 2.63891 231.216 3.04273C230.698 3.44654 230.264 3.94853 229.94 4.52001L177.32 95.74L127.91 10.16C126.64 7.96001 125.91 6.66001 125.21 5.71001L125.01 5.42001C124.544 4.79903 123.94 4.29501 123.246 3.94787C122.552 3.60073 121.786 3.42001 121.01 3.42001C120.234 3.42001 119.468 3.60073 118.774 3.94787C118.08 4.29501 117.476 4.79903 117.01 5.42001L116.83 5.68001C116.09 6.68001 115.36 7.99001 114.09 10.19L5.09 198.97C3.82 201.17 3.09 202.47 2.56 203.59L2.44 203.84C2.12089 204.557 1.97517 205.34 2.01462 206.124C2.05407 206.908 2.27759 207.671 2.66708 208.353C3.05658 209.035 3.60109 209.615 4.25656 210.047C4.91203 210.479 5.66004 210.751 6.44 210.84H6.7C7.99 210.96 9.44999 210.96 11.99 210.96H229.93C232.47 210.96 233.93 210.96 235.27 210.83H235.48C235.985 210.774 236.477 210.639 236.94 210.43C237.54 210.163 238.082 209.781 238.534 209.305C238.987 208.829 239.341 208.269 239.577 207.656C239.813 207.043 239.926 206.39 239.909 205.733C239.892 205.077 239.747 204.43 239.48 203.83L239.38 203.6C238.84 202.47 238.11 201.17 236.84 198.97L186.2 111.19H296.2C297.526 111.19 298.798 110.663 299.736 109.726C300.673 108.788 301.2 107.516 301.2 106.19C301.2 104.864 300.673 103.592 299.736 102.654C298.798 101.717 297.526 101.19 296.2 101.19ZM24.36 200.65L162.01 121.14L116.2 200.65H24.36ZM127.7 200.65L176.93 115.38L226.13 200.65H127.7Z" fill="#273BE2"/>
<path d="M296.2 99.1902H189.2L240.34 10.5502L240.4 10.4502C240.856 9.65103 241.15 8.76979 241.265 7.85694C241.38 6.94408 241.313 6.01752 241.07 5.13024C240.575 3.34338 239.392 1.8257 237.78 0.910241C236.98 0.449793 236.097 0.152009 235.182 0.0340192C234.267 -0.0839709 233.337 -0.0198378 232.447 0.222728C231.557 0.465295 230.723 0.881507 229.994 1.44742C229.265 2.01334 228.656 2.71778 228.2 3.52024L177.32 91.7402L129.64 9.16024C128.38 6.98024 127.58 5.60024 126.86 4.57024L126.61 4.22024C125.955 3.35372 125.109 2.65018 124.138 2.16449C123.166 1.67879 122.096 1.42409 121.01 1.42024C119.912 1.42567 118.831 1.68699 117.852 2.18346C116.873 2.67993 116.023 3.39787 115.37 4.28024L115.21 4.51024C114.296 5.83902 113.452 7.21419 112.68 8.63024L3.36 197.97C2.07 200.2 1.29 201.55 0.749995 202.73L0.609996 203.03C0.163244 204.034 -0.040771 205.13 0.0144604 206.227C0.0696918 207.325 0.382619 208.394 0.927913 209.349C1.47321 210.303 2.23554 211.115 3.15319 211.72C4.07085 212.325 5.11804 212.705 6.20999 212.83H6.61C7.97 212.95 9.49999 212.95 11.99 212.95H229.93C232.37 212.95 233.93 212.95 235.36 212.82H235.71C236.418 212.74 237.11 212.551 237.76 212.26C239.453 211.505 240.778 210.11 241.444 208.379C242.109 206.649 242.061 204.725 241.31 203.03L241.18 202.74C240.61 201.54 239.85 200.19 238.57 197.97L189.64 113.23H296.2C298.056 113.23 299.837 112.493 301.15 111.18C302.462 109.867 303.2 108.087 303.2 106.23C303.2 104.374 302.462 102.593 301.15 101.28C299.837 99.9677 298.056 99.2302 296.2 99.2302V99.1902ZM296.2 109.19H182.72L235.11 199.97C236.34 202.1 237.06 203.38 237.55 204.4L237.65 204.64C237.816 205.002 237.909 205.394 237.922 205.792C237.936 206.19 237.87 206.587 237.729 206.959C237.587 207.331 237.373 207.672 237.098 207.96C236.824 208.249 236.495 208.48 236.13 208.64C235.882 208.752 235.619 208.829 235.35 208.87H235.09C233.89 208.98 232.53 208.99 229.93 208.99H11.99C9.46999 208.99 8.07998 208.99 6.87998 208.88H6.56999C5.79986 208.766 5.10434 208.357 4.63037 207.739C4.15639 207.121 3.94111 206.344 4.02999 205.57C4.05664 205.283 4.13099 205.003 4.25 204.74L4.37998 204.46C4.84998 203.46 5.58999 202.14 6.81999 200.01L115.82 11.2702L116.14 10.7102C117.2 8.88024 117.83 7.78024 118.47 6.90024L118.61 6.70024C118.889 6.32765 119.252 6.02524 119.668 5.81696C120.085 5.60868 120.544 5.50024 121.01 5.50024C121.462 5.50082 121.909 5.60366 122.316 5.80107C122.723 5.99848 123.08 6.28536 123.36 6.64024L123.58 6.94024C124.21 7.84024 124.98 9.16024 126.18 11.2402L177.32 99.8202L231.71 5.51024C231.904 5.16745 232.164 4.8663 232.475 4.62398C232.786 4.38167 233.141 4.20294 233.521 4.09801C233.901 3.99307 234.297 3.96399 234.689 4.01242C235.08 4.06084 235.457 4.18583 235.8 4.38024C236.487 4.77491 236.991 5.42564 237.2 6.19024C237.308 6.57948 237.336 6.98649 237.283 7.38687C237.229 7.78724 237.096 8.17274 236.89 8.52024L182.2 103.19H296.2C296.996 103.19 297.759 103.506 298.321 104.069C298.884 104.632 299.2 105.395 299.2 106.19C299.2 106.986 298.884 107.749 298.321 108.312C297.759 108.874 296.996 109.19 296.2 109.19Z" fill="url(#paint0_radial_38_2)" fill-opacity="0.43"/>
<path d="M61 108.82C61.4405 108.065 62.0712 107.439 62.8292 107.004C63.5872 106.568 64.446 106.34 65.32 106.34H161.97C163.072 106.34 164.143 106.705 165.017 107.377C165.89 108.05 166.517 108.991 166.8 110.057C167.083 111.122 167.006 112.251 166.581 113.268C166.156 114.285 165.407 115.133 164.45 115.68L19.58 198.36C18.6245 198.902 17.5173 199.113 16.4293 198.963C15.3413 198.813 14.3332 198.308 13.5605 197.528C12.7879 196.747 12.2938 195.734 12.1545 194.644C12.0152 193.555 12.2386 192.45 12.79 191.5L61 108.82Z" fill="#F4C2C2"/>
<path d="M120.94 4.25L178.61 103.58H63.27L120.94 4.25Z" fill="#FE6F5E"/>
<path d="M177.14 107.17L14.2 201.28" stroke="#273BE2" stroke-width="10" stroke-linecap="round"/>
<path d="M123.58 12.6702L232.58 201.41C233.76 203.47 234.47 204.71 234.9 205.64L234.97 205.8H234.8C233.8 205.9 232.35 205.9 229.98 205.9H12.01C9.63999 205.9 8.21 205.9 7.19 205.8H7.02L7.09 205.64C7.52 204.71 8.23 203.47 9.41 201.41L118.38 12.6702C119.57 10.6202 120.29 9.38016 120.88 8.55016L120.98 8.41016L121.08 8.55016C121.67 9.38016 122.39 10.6202 123.58 12.6702Z" stroke="#273BE2" stroke-width="10" stroke-linejoin="round"/>
<path d="M234.32 7.00977L120.32 204.46" stroke="#273BE2" stroke-width="10" stroke-linecap="round"/>
<path d="M296.15 106.18H68.15" stroke="#273BE2" stroke-width="10" stroke-linecap="round"/>
</g>
<defs>
<radialGradient id="paint0_radial_38_2" cx="0" cy="0" r="1" gradientUnits="userSpaceOnUse" gradientTransform="translate(130.5 116.5) rotate(-0.345151) scale(166.003 236.326)">
<stop stop-color="white"/>
<stop offset="0.298111" stop-color="white" stop-opacity="0.4"/>
<stop offset="1" stop-color="white" stop-opacity="0.2"/>
</radialGradient>
<clipPath id="clip0_38_2">
<rect width="303.18" height="212.93" fill="white"/>
</clipPath>
</defs>
</svg>

<?xml version="1.0" encoding="UTF-8"?>
<svg id="_图层_1" data-name="图层 1" xmlns="http://www.w3.org/2000/svg" xmlns:xlink="http://www.w3.org/1999/xlink" viewBox="0 0 303.18 212.93">
  <defs>
    <style>
      .cls-1 {
        fill: url(#_未命名的渐变_47);
        opacity: .43;
      }

      .cls-2 {
        stroke-linecap: round;
      }

      .cls-2, .cls-3 {
        fill: none;
        stroke: #273be2;
        stroke-width: 10px;
      }

      .cls-4 {
        fill: #fe6f5e;
      }

      .cls-5 {
        fill: #f4c2c2;
      }

      .cls-3 {
        stroke-linejoin: round;
      }

      .cls-6 {
        fill: #273be2;
      }
    </style>
    <radialGradient id="_未命名的渐变_47" data-name="未命名的渐变 47" cx="151.6" cy="106.46" fx="151.6" fy="106.46" r="131" gradientUnits="userSpaceOnUse">
      <stop offset="0" stop-color="#fff" stop-opacity="0"/>
      <stop offset="1" stop-color="#fff" stop-opacity=".2"/>
    </radialGradient>
  </defs>
  <path class="cls-6" d="M296.2,101.19h-110.5L238.63,9.52v-.06c1.37-2.4.53-5.45-1.87-6.82,0,0,0,0,0,0-2.4-1.36-5.45-.52-6.82,1.88,0,0,0,0,0,0l-52.62,91.22L127.91,10.16c-1.27-2.2-2-3.5-2.7-4.45l-.2-.29c-.94-1.26-2.43-2-4-2s-3.06.74-4,2l-.18.26c-.74,1-1.47,2.31-2.74,4.51L5.09,198.97c-1.27,2.2-2,3.5-2.53,4.62l-.12.25c-1.12,2.52.01,5.48,2.54,6.6.46.21.96.34,1.46.4h.26c1.29.12,2.75.12,5.29.12h217.94c2.54,0,4,0,5.34-.13h.21c.5-.06,1-.19,1.46-.4,2.52-1.12,3.66-4.08,2.54-6.6,0,0,0,0,0,0l-.1-.23c-.54-1.13-1.27-2.43-2.54-4.63l-50.64-87.78h110c2.76,0,5-2.24,5-5s-2.24-5-5-5ZM24.36,200.65l137.65-79.51-45.81,79.51H24.36ZM127.7,200.65l49.23-85.27,49.2,85.27h-98.43Z"/>
  <path class="cls-1" d="M296.2,99.19h-107L240.34,10.55l.06-.1c.92-1.61,1.16-3.53.67-5.32-.49-1.79-1.68-3.3-3.29-4.22-3.35-1.93-7.63-.78-9.56,2.57,0,.01-.01.02-.02.04l-50.88,88.22L129.64,9.16c-1.26-2.18-2.06-3.56-2.78-4.59l-.25-.35c-1.33-1.76-3.4-2.79-5.6-2.8-2.23.01-4.32,1.07-5.64,2.86l-.16.23c-.91,1.33-1.76,2.7-2.53,4.12L3.36,197.97c-1.29,2.23-2.07,3.58-2.61,4.76l-.14.3c-1.57,3.53.02,7.67,3.55,9.24.65.29,1.34.48,2.05.56h.4c1.36.12,2.89.12,5.38.12h217.94c2.44,0,4,0,5.43-.13h.35c.71-.08,1.4-.27,2.05-.56,3.53-1.57,5.11-5.7,3.55-9.23l-.13-.29c-.57-1.2-1.33-2.55-2.61-4.77l-48.93-84.74h106.56c3.87,0,7-3.13,7-7s-3.13-7-7-7v-.04ZM296.2,109.19h-113.48l52.39,90.78c1.23,2.13,1.95,3.41,2.44,4.43l.1.24c.69,1.51.03,3.29-1.47,3.98-.02,0-.03.01-.05.02-.25.11-.51.19-.78.23h-.26c-1.2.11-2.56.12-5.16.12H11.99c-2.52,0-3.91,0-5.11-.11h-.31c-1.6-.24-2.72-1.7-2.54-3.31.03-.29.1-.57.22-.83l.13-.28c.47-1,1.21-2.32,2.44-4.45L115.82,11.27l.32-.56c1.06-1.83,1.69-2.93,2.33-3.81l.14-.2c.57-.76,1.46-1.2,2.4-1.2.92,0,1.78.42,2.35,1.14l.22.3c.63.9,1.4,2.22,2.6,4.3l51.14,88.58L231.71,5.51c.82-1.44,2.65-1.95,4.09-1.13,0,0,0,0,0,0,.69.39,1.19,1.05,1.4,1.81.22.79.11,1.63-.31,2.33l-54.69,94.67h114c1.66,0,3,1.34,3,3s-1.34,3-3,3Z"/>
  <path class="cls-5" d="M61,108.82c.9-1.54,2.54-2.48,4.32-2.48h96.65c2.76,0,5,2.24,5,5,0,1.79-.96,3.45-2.52,4.34L19.58,198.36c-2.4,1.36-5.45.52-6.82-1.88-.88-1.55-.87-3.44.03-4.98l48.21-82.68Z"/>
  <path class="cls-4" d="M120.94,4.25l57.67,99.33H63.27L120.94,4.25Z"/>
  <path class="cls-2" d="M177.14,107.17L14.2,201.28"/>
  <path class="cls-3" d="M123.58,12.67l109,188.74c1.18,2.06,1.89,3.3,2.32,4.23l.07.16h-.17c-1,.1-2.45.1-4.82.1H12.01c-2.37,0-3.8,0-4.82-.1h-.17l.07-.16c.43-.93,1.14-2.17,2.32-4.23L118.38,12.67c1.19-2.05,1.91-3.29,2.5-4.12l.1-.14.1.14c.59.83,1.31,2.07,2.5,4.12Z"/>
  <line class="cls-2" x1="234.32" y1="7.01" x2="120.32" y2="204.46"/>
  <line class="cls-2" x1="296.15" y1="106.18" x2="68.15" y2="106.18"/>
</svg>
